X: 778
T: Qiunyinghei
%%abc-version 2.0
%%abcx-abcm2ps-target-version 5.9.1 (29 Sep 2008)
%%abc-creator hum2abc beta
%%abcx-conversion-date 2013/10/02 07:52:30
%%abc-edited-by Helmut Schaffrath
%%humdrum-veritas 2462722559
%%humdrum-veritas-data 1022814018
%%continueall 1
%%barnumbers 0
L: 1/8
M: 2/4
K: G
d ed2 [I:setbarnb 1]| 
d ed2 | 
d e d e | 
d e A A- | 
A d B d | 
e gd2 | 
B d A G | 
D4 | 
d d B d | 
A GD2 | 
d d B d | 
A GD2 | 
G F E G | 
A Bd2 | 
c B A A | 
B ED2 |]  



